clients/assets/images/todo-card-bgc.svg

<svg width="144" height="145" viewBox="0 0 144 145" fill="none" xmlns="http://www.w3.org/2000/svg">
<g opacity="0.65">
<g clip-path="url(#clip0)">
<path d="M51.9261 61.212L48.2432 55.2942L48.0126 62.2606L41.9168 63.8939L47.8448 66.1117L47.5901 72.7306L51.5466 67.6227L57.535 70.0659L54.005 64.4611L58.0219 59.5786L51.9261 61.212Z" fill="url(#paint0_linear)"/>
</g>
<g clip-path="url(#clip1)">
<path d="M76.0838 54.7389L72.4009 48.8212L72.1703 55.7876L66.0745 57.4209L72.0025 59.6387L71.7479 66.2576L75.7043 61.1497L81.6928 63.5929L78.1627 57.988L82.1796 53.1056L76.0838 54.7389Z" fill="url(#paint1_linear)"/>
</g>
<g clip-path="url(#clip2)">
<path d="M100.241 48.2659L96.5584 42.3482L96.3278 49.3145L90.232 50.9479L96.16 53.1656L95.9053 59.7846L99.8618 54.6766L105.85 57.1198L102.32 51.515L106.337 46.6326L100.241 48.2659Z" fill="url(#paint2_linear)"/>
</g>
<path d="M45.3084 95.0636C44.8919 97.3508 43.9091 99.5325 42.3541 101.587L43.4756 103.415C45.5802 100.793 46.8725 98.1068 47.3205 95.4134L45.3084 95.0636ZM47.4452 99.8951C46.9972 102.589 45.9057 105.15 44.1647 107.558L45.2804 109.365C45.9184 108.516 46.5069 107.656 47.0401 106.765L49.4029 115.583L51.3891 115.051L48.4181 103.962C48.8912 102.759 49.2376 101.52 49.4355 100.251L47.4452 99.8951ZM53.501 92.9854L54.0917 95.1899L49.3989 96.4473L49.9077 98.3463L54.6006 97.0889L55.203 99.3371L49.7243 100.805L50.239 102.726L63.3353 99.2167L62.8206 97.2959L57.1892 98.8048L56.5868 96.5566L61.3233 95.2875L60.8145 93.3885L56.078 94.6577L55.4873 92.4531L53.501 92.9854ZM50.8894 104.891L51.4099 106.834L59.7042 104.611L60.9499 109.26C61.1371 109.959 60.8873 110.423 60.2106 110.605C59.3157 110.845 58.3655 111.052 57.338 111.234L58.3504 113.092L61.4499 112.261C62.9996 111.846 63.569 110.828 63.1362 109.213L61.7559 104.061L64.1351 103.424L63.6146 101.481L61.2354 102.119L60.8494 100.678L58.7977 101.228L59.1837 102.669L50.8894 104.891ZM54.3936 106.619L53.0533 108.078C54.5318 108.968 55.741 109.814 56.7026 110.609L58.0137 109.041C57.1191 108.322 55.9216 107.52 54.3936 106.619ZM67.4805 97.6615C67.5095 100.04 67.132 102.036 66.3596 103.693L68.2719 104.631C69.0763 102.919 69.4826 100.681 69.507 97.8905L67.4805 97.6615ZM69.9225 88.7022L71.0103 92.7621L65.7281 94.1774L66.2662 96.1855L71.461 94.7936C72.0292 97.6124 72.1966 100.071 71.9633 102.169C71.608 104.51 70.3734 106.712 68.2536 108.754L69.874 110.261C72.1205 108.256 73.5064 105.919 74.0039 103.236C74.4173 100.762 74.2681 97.7611 73.5564 94.2321L78.4239 92.9279C79.6424 97.9119 80.2956 101.223 80.3557 102.844C80.3707 104.384 79.8492 105.319 78.7797 105.606C78.1249 105.781 77.4206 105.947 76.6667 106.102L77.7723 107.958L80.3261 107.274C81.4159 106.888 82.0948 106.191 82.3512 105.14C82.5959 104.045 82.5225 102.287 82.1091 99.8711C81.8689 98.6254 81.5702 97.1614 81.2247 95.5228C82.5657 97.035 83.9433 98.7714 85.3022 100.7L86.9556 99.2743C85.3795 97.1466 83.8183 95.2489 82.2878 93.5535L81.0344 94.638C80.7271 93.3167 80.3688 91.8921 80.0031 90.3525L73.1057 92.2006L72.0179 88.1408L69.9225 88.7022ZM88.3321 87.9102L89.5369 92.4066L95.9977 90.6754L96.2901 91.7667L89.3054 93.6383L89.7382 95.2535L96.7229 93.3819L97.0563 94.6261L88.0853 97.0299L88.5357 98.7105L97.5066 96.3068L97.8283 97.5073L90.8218 99.3847L91.2663 101.044L98.2728 99.1661L98.4424 99.7991C98.5652 100.257 98.3458 100.574 97.8219 100.714C97.0362 100.925 96.211 101.075 95.3582 101.21L96.3211 103.058L99.0058 102.338C100.446 101.952 100.985 101.083 100.623 99.7296L100.325 98.6164L107.091 96.8033L106.325 93.944L108.529 93.3533L108.079 91.6726L105.874 92.2633L105.108 89.4039L98.3419 91.217L98.0494 90.1256L104.51 88.3944L103.305 83.898L96.8446 85.6292L96.5522 84.5379L104.934 82.292L104.46 80.524L96.0785 82.7699L95.7744 81.6349L93.7226 82.1846L94.0267 83.3196L85.6451 85.5655L86.1188 87.3335L94.5005 85.0876L94.7929 86.179L88.3321 87.9102ZM102.043 87.3945L97.6342 88.5759L97.254 87.1571L101.663 85.9757L102.043 87.3945ZM95.5824 89.1257L91.1734 90.3071L90.7932 88.8883L95.2023 87.7069L95.5824 89.1257ZM98.7747 92.8322L103.555 91.5513L103.888 92.7955L99.108 94.0763L98.7747 92.8322ZM104.339 94.4762L104.66 95.6767L99.88 96.9575L99.5584 95.757L104.339 94.4762ZM110.302 82.0702L112.94 91.9142C112.131 92.3882 111.3 92.8681 110.442 93.332L111.603 95.22C113.91 93.8767 115.916 92.5438 117.626 91.2434L117.07 89.1698C116.366 89.6859 115.641 90.2079 114.865 90.7198L112.397 81.5087L114.755 80.8771L114.217 78.869L107.341 80.7113L107.879 82.7194L110.302 82.0702ZM114.593 77.4813L115.131 79.4894L120.239 78.1208C120.321 78.7772 120.354 79.4235 120.343 80.0814L116.458 81.1225L119.289 91.6868L121.275 91.1546L118.959 82.511L125.485 80.7623L127.801 89.4059L129.809 88.8678L126.979 78.3035L122.395 79.5317C122.368 78.9072 122.335 78.261 122.269 77.5769L127.355 76.2142L126.817 74.2061L114.593 77.4813ZM126.522 89.6083L125.504 91.3082C127.711 92.2138 129.475 93.1215 130.801 94.0529L131.888 92.171C130.381 91.2645 128.607 90.4064 126.522 89.6083ZM121.412 83.0234L122.436 86.8431C122.828 88.6564 122.718 90.2533 122.149 91.6222C121.513 92.9156 120.001 94.2566 117.656 95.6335L119.265 97.0973C121.685 95.6534 123.293 94.1464 124.099 92.5268C124.892 90.7703 125.032 88.6741 124.509 86.2875L123.486 82.4678L121.412 83.0234Z" fill="url(#paint3_linear)"/>
<circle cx="81.0313" cy="81.0314" r="68.7771" transform="rotate(-15 81.0313 81.0314)" stroke="url(#paint4_linear)" stroke-width="2.50098" stroke-dasharray="7.5 7.5"/>
<circle cx="81.0318" cy="81.0314" r="78.1558" transform="rotate(-15 81.0318 81.0314)" stroke="url(#paint5_linear)" stroke-width="3.75148"/>
</g>
<defs>
<linearGradient id="paint0_linear" x1="48.2432" y1="55.2942" x2="52.5586" y2="71.3993" gradientUnits="userSpaceOnUse">
<stop stop-color="#FDBA74"/>
<stop offset="1" stop-color="#FB923C"/>
</linearGradient>
<linearGradient id="paint1_linear" x1="72.4009" y1="48.8212" x2="76.7163" y2="64.9263" gradientUnits="userSpaceOnUse">
<stop stop-color="#FDBA74"/>
<stop offset="1" stop-color="#FB923C"/>
</linearGradient>
<linearGradient id="paint2_linear" x1="96.5584" y1="42.3482" x2="100.874" y2="58.4533" gradientUnits="userSpaceOnUse">
<stop stop-color="#FDBA74"/>
<stop offset="1" stop-color="#FB923C"/>
</linearGradient>
<linearGradient id="paint3_linear" x1="80.1072" y1="70.9222" x2="93.0533" y2="119.238" gradientUnits="userSpaceOnUse">
<stop stop-color="#FDBA74"/>
<stop offset="1" stop-color="#FB923C"/>
</linearGradient>
<linearGradient id="paint4_linear" x1="81.0313" y1="11.0038" x2="81.0313" y2="151.059" gradientUnits="userSpaceOnUse">
<stop stop-color="#FDBA74"/>
<stop offset="1" stop-color="#FB923C"/>
</linearGradient>
<linearGradient id="paint5_linear" x1="81.0318" y1="0.99987" x2="81.0318" y2="161.063" gradientUnits="userSpaceOnUse">
<stop stop-color="#FDBA74"/>
<stop offset="1" stop-color="#FB923C"/>
</linearGradient>
<clipPath id="clip0">
<rect width="20.0079" height="20.0079" fill="white" transform="translate(38.1487 56.2728) rotate(-15)"/>
</clipPath>
<clipPath id="clip1">
<rect width="20.0079" height="20.0079" fill="white" transform="translate(62.3064 49.7998) rotate(-15)"/>
</clipPath>
<clipPath id="clip2">
<rect width="20.0079" height="20.0079" fill="white" transform="translate(86.4639 43.3268) rotate(-15)"/>
</clipPath>
</defs>
</svg>

<svg width="144" height="145" fill="none" xmlns="http://www.w3.org/2000/svg"><g opacity=".65"><g clip-path="url(#clip0)"><path d="M51.926 61.212l-3.683-5.918-.23 6.967-6.096 1.633 5.928 2.218-.255 6.619 3.957-5.108 5.988 2.443-3.53-5.605 4.017-4.882-6.096 1.633z" fill="url(#paint0_linear)"/></g><g clip-path="url(#clip1)"><path d="M76.084 54.739L72.4 48.82l-.23 6.967-6.097 1.633 5.928 2.218-.254 6.619 3.956-5.108 5.989 2.443-3.53-5.605 4.017-4.882-6.096 1.633z" fill="url(#paint1_linear)"/></g><g clip-path="url(#clip2)"><path d="M100.241 48.266l-3.683-5.918-.23 6.967-6.096 1.633 5.928 2.218-.255 6.619 3.957-5.108 5.988 2.443-3.53-5.605 4.017-4.882-6.096 1.633z" fill="url(#paint2_linear)"/></g><path d="M45.308 95.064c-.416 2.287-1.399 4.469-2.954 6.523l1.122 1.828c2.104-2.622 3.397-5.308 3.845-8.002l-2.013-.35zm2.137 4.831c-.448 2.694-1.54 5.255-3.28 7.663l1.115 1.807a29.798 29.798 0 001.76-2.6l2.363 8.818 1.986-.532-2.97-11.089c.472-1.203.819-2.442 1.017-3.711l-1.99-.356zm6.056-6.91l.59 2.205-4.692 1.257.509 1.9 4.693-1.258.602 2.248-5.479 1.468.515 1.921 13.096-3.51-.514-1.92-5.632 1.509-.602-2.248 4.736-1.27-.508-1.899-4.737 1.27-.59-2.205-1.987.532zm-2.612 11.906l.52 1.943 8.295-2.223 1.246 4.649c.187.699-.063 1.163-.74 1.345a33.89 33.89 0 01-2.872.629l1.012 1.858 3.1-.831c1.55-.415 2.119-1.433 1.686-3.048l-1.38-5.152 2.38-.637-.521-1.943-2.38.638-.386-1.441-2.051.55.386 1.441-8.295 2.222zm3.505 1.728l-1.34 1.459c1.478.89 2.687 1.736 3.649 2.531l1.31-1.568c-.894-.719-2.091-1.521-3.62-2.422zm13.087-8.957c.029 2.378-.349 4.374-1.121 6.031l1.912.938c.804-1.712 1.21-3.95 1.235-6.74l-2.026-.23zm2.442-8.96l1.087 4.06-5.282 1.415.538 2.008 5.195-1.391c.568 2.818.736 5.277.502 7.375-.355 2.341-1.59 4.543-3.71 6.585l1.621 1.507c2.247-2.005 3.632-4.342 4.13-7.025.413-2.474.264-5.475-.448-9.004l4.868-1.304c1.218 4.984 1.872 8.295 1.932 9.916.015 1.54-.507 2.475-1.576 2.762-.655.175-1.36.341-2.113.496l1.105 1.856 2.554-.684c1.09-.386 1.769-1.083 2.025-2.134.245-1.095.171-2.853-.242-5.269-.24-1.246-.539-2.71-.884-4.348a59.39 59.39 0 014.077 5.177l1.654-1.426a76.304 76.304 0 00-4.668-5.72l-1.254 1.084c-.307-1.321-.665-2.746-1.03-4.285L73.105 92.2l-1.088-4.06-2.096.561zm18.41-.792l1.204 4.497 6.46-1.732.293 1.092-6.985 1.871.433 1.615 6.985-1.871.333 1.244-8.97 2.404.45 1.68 8.97-2.403.322 1.2-7.006 1.878.444 1.659 7.007-1.878.17.633c.122.458-.097.775-.621.915-.786.211-1.611.361-2.464.496l.963 1.848 2.685-.72c1.44-.386 1.979-1.255 1.617-2.608l-.298-1.114 6.766-1.813-.766-2.859 2.204-.59-.45-1.681-2.205.59-.766-2.86-6.766 1.814-.293-1.091 6.461-1.732-1.205-4.496-6.46 1.731-.293-1.091 8.382-2.246-.474-1.768-8.381 2.246-.305-1.135-2.051.55.304 1.135-8.382 2.246.474 1.767 8.382-2.245.292 1.091-6.46 1.731zm13.71-.516l-4.409 1.182-.38-1.419 4.409-1.181.38 1.418zm-6.46 1.732l-4.41 1.181-.38-1.419 4.41-1.181.38 1.419zm3.192 3.706l4.78-1.28.333 1.243-4.78 1.281-.333-1.244zm5.564 1.644l.321 1.2-4.78 1.281-.322-1.2 4.781-1.28zm5.963-12.406l2.638 9.844c-.809.474-1.64.954-2.498 1.418l1.161 1.888c2.307-1.343 4.313-2.676 6.023-3.977l-.556-2.073a53.996 53.996 0 01-2.205 1.55l-2.468-9.211 2.358-.632-.538-2.008-6.876 1.842.538 2.008 2.423-.649zm4.291-4.589l.538 2.008 5.108-1.368c.082.656.115 1.303.104 1.96l-3.885 1.041 2.831 10.565 1.986-.532-2.316-8.644 6.526-1.749 2.316 8.644 2.008-.538-2.83-10.564-4.584 1.228a36.44 36.44 0 00-.126-1.955l5.086-1.363-.538-2.008-12.224 3.275zm11.929 12.127l-1.018 1.7c2.207.906 3.971 1.813 5.297 2.745l1.087-1.882c-1.507-.907-3.281-1.765-5.366-2.563zm-5.11-6.585l1.024 3.82c.392 1.813.282 3.41-.287 4.78-.636 1.293-2.148 2.634-4.493 4.01l1.609 1.464c2.42-1.444 4.028-2.95 4.834-4.57.793-1.757.933-3.853.41-6.24l-1.023-3.82-2.074.556z" fill="url(#paint3_linear)"/><circle cx="81.031" cy="81.031" r="68.777" transform="rotate(-15 81.031 81.031)" stroke="url(#paint4_linear)" stroke-width="2.501" stroke-dasharray="7.5 7.5"/><circle cx="81.032" cy="81.031" r="78.156" transform="rotate(-15 81.032 81.031)" stroke="url(#paint5_linear)" stroke-width="3.751"/></g><defs><linearGradient id="paint0_linear" x1="48.243" y1="55.294" x2="52.559" y2="71.399" gradientUnits="userSpaceOnUse"><stop stop-color="#FDBA74"/><stop offset="1" stop-color="#FB923C"/></linearGradient><linearGradient id="paint1_linear" x1="72.401" y1="48.821" x2="76.716" y2="64.926" gradientUnits="userSpaceOnUse"><stop stop-color="#FDBA74"/><stop offset="1" stop-color="#FB923C"/></linearGradient><linearGradient id="paint2_linear" x1="96.558" y1="42.348" x2="100.874" y2="58.453" gradientUnits="userSpaceOnUse"><stop stop-color="#FDBA74"/><stop offset="1" stop-color="#FB923C"/></linearGradient><linearGradient id="paint3_linear" x1="80.107" y1="70.922" x2="93.053" y2="119.238" gradientUnits="userSpaceOnUse"><stop stop-color="#FDBA74"/><stop offset="1" stop-color="#FB923C"/></linearGradient><linearGradient id="paint4_linear" x1="81.031" y1="11.004" x2="81.031" y2="151.059" gradientUnits="userSpaceOnUse"><stop stop-color="#FDBA74"/><stop offset="1" stop-color="#FB923C"/></linearGradient><linearGradient id="paint5_linear" x1="81.032" y1="1" x2="81.032" y2="161.063" gradientUnits="userSpaceOnUse"><stop stop-color="#FDBA74"/><stop offset="1" stop-color="#FB923C"/></linearGradient><clipPath id="clip0"><path fill="#fff" transform="rotate(-15 232.792 -116.748)" d="M0 0h20.008v20.008H0z"/></clipPath><clipPath id="clip1"><path fill="#fff" transform="rotate(-15 220.287 -211.732)" d="M0 0h20.008v20.008H0z"/></clipPath><clipPath id="clip2"><path fill="#fff" transform="rotate(-15 207.782 -306.716)" d="M0 0h20.008v20.008H0z"/></clipPath></defs></svg>
